icons/mobile/24/svg/folder-arrow-right-24.svg

<!-- This Source Code Form is subject to the terms of the Mozilla Public
   - License, v. 2.0. If a copy of the MPL was not distributed with this
   - file, You can obtain one at http://mozilla.org/MPL/2.0/. -->
<svg width="24" height="24" viewBox="0 0 24 24" fill="none" xmlns="http://www.w3.org/2000/svg">
    <path d="M3.75 5.5C3.75 5.08625 4.08625 4.75 4.5 4.75H9.011C9.2114 4.75 9.40214 4.82965 9.54256 4.97099L12.0496 7.49199C12.2138 7.65714 12.4371 7.75 12.67 7.75H19.5C19.9138 7.75 20.25 8.08625 20.25 8.5V17.5C20.25 17.9138 19.9138 18.25 19.5 18.25H4.5C4.08625 18.25 3.75 17.9138 3.75 17.5V14.25H2V17.5C2 18.8802 3.11975 20 4.5 20H19.5C20.8802 20 22 18.8802 22 17.5V8.5C22 7.11975 20.8802 6 19.5 6H13.0339L10.7837 3.73731C10.3142 3.26465 9.6766 3 9.011 3H4.5C3.11975 3 2 4.11975 2 5.5V9.25H3.75V5.5Z" fill="black" />
    <path d="M8 14.216C8 14.884 8.808 15.219 9.28 14.746L11.746 12.28C12.039 11.987 12.039 11.512 11.746 11.219L9.28 8.75398C8.808 8.28098 8 8.61598 8 9.28398V11H1V12.5H8V14.216Z" fill="black" />
</svg>

<!-- This Source Code Form is subject to the terms of the Mozilla Public
   - License, v. 2.0. If a copy of the MPL was not distributed with this
   - file, You can obtain one at http://mozilla.org/MPL/2.0/. -->
<svg xmlns="http://www.w3.org/2000/svg" width="24" height="24" fill="none" viewBox="0 0 24 24">
    <path fill="#000" d="M3.75 5.5a.75.75 0 0 1 .75-.75h4.511c.2 0 .391.08.532.221l2.507 2.521a.88.88 0 0 0 .62.258h6.83a.75.75 0 0 1 .75.75v9a.75.75 0 0 1-.75.75h-15a.75.75 0 0 1-.75-.75v-3.25H2v3.25A2.5 2.5 0 0 0 4.5 20h15a2.5 2.5 0 0 0 2.5-2.5v-9A2.5 2.5 0 0 0 19.5 6h-6.466l-2.25-2.263A2.5 2.5 0 0 0 9.01 3H4.5A2.5 2.5 0 0 0 2 5.5v3.75h1.75z" />
    <path fill="#000" d="M8 14.216a.75.75 0 0 0 1.28.53l2.466-2.466a.75.75 0 0 0 0-1.061L9.28 8.754a.75.75 0 0 0-1.28.53V11H1v1.5h7z" />
</svg>
